X:3925
T:Maid of Tramore, The
O:england
M:6/8
R:jig
E:6
K:ADor
eAABAA|eAA ABd|eAA BAB|dBG GBd|eAA BAA|eAA AGE|GABd2e|dBAA3:|
abag2e|dBGGBd|abag2e|dBde3|abag2e|dBGAGE|GAB d2e|dBA A3:|
